!!!COM: Beethoven, Ludwig van
!!!CDT: 1770-1827
!!!OTL: Piano Sonata no. 11 in B-flat major
!!!OPS: 22
!!!OMV: 1
!!!OMD: Allegro con brio
**kern	**kern	**dynam
*staff2	*staff1	*staff1/2
*Ipiano	*Ipiano	*Ipiano
*>[A,A,B]	*>[A,A,B]	*>[A,A,B]
*>norep[A,B]	*>norep[A,B]	*>norep[A,B]
*>A	*>A	*>A
*clefF4	*clefG2	*
*k[b-e-]	*k[b-e-]	*
*B-:	*B-:	*
*M4/4	*M4/4	*
*MM132	*MM132	*
*	*^	*
!	!	!	!LO:DY:rj
4r	(4d'	16B-LL\	p
.	.	16A\	.
.	.	16B-\	.
.	.	16F<JJ/	.
=1	=1	=1	=1
4BBB-' 4BB-'	4f'	4d	.
4BBB-' 4BB-'	4d')	4B-'	.
2rD	4r	4r	.
.	(4d'	16B-LL\	.
.	.	16A\	.
.	.	16B-\	.
.	.	16F<JJ/	.
=2	=2	=2	=2
4BBB-' 4BB-'	4f'	4d	.
4BBB-' 4BB-'	4d')	4B-'	.
2rD	4r	4r	.
.	4d	16B-LL\	.
.	.	16A\	.
.	.	16B-\	.
.	.	16F<JJ/	.
=3	=3	=3	=3
1r	4f'	16dLL	<
.	.	16c#	.
.	.	16d	.
.	.	16B-JJ	.
.	4b-'	16fLL	.
.	.	16en	.
.	.	16f	.
.	.	16dJJ	.
.	4dd'	16b-LL	.
.	.	16a	.
.	.	16b-	.
.	.	16fJJ	.
.	4ff'	16ddLL	.
.	.	16cc#	.
.	.	16dd	.
.	.	16b-JJ	.
*	*v	*v	*
!!LO:LB:g=original
=4	=4	=4
!	!	!LO:DY:t=%s legato
16BB-LL	2.bb-	fp
16D	.	.
16F	.	.
16B-JJ	.	.
16BB-LL	.	.
16D	.	.
16F	.	.
16B-JJ	.	.
16BB-LL	.	.
16D	.	.
16F	.	.
16B-JJ	.	.
16BB-LL	(16aaLL	.
16D	16bb-	.
16F	16ccc	.
16B-JJ	16bb-JJ	.
=5	=5	=5
16BB-LL	8aaL	.
16E-	.	.
16G	8gg	.
16B-JJ	.	.
16BB-LL	8ff	.
16E-	.	.
16G	8ee-J	.
16B-JJ	.	.
16BB-LL	8ddL	.
16E-	.	.
16F	8cc	.
16AJJ	.	.
16BB-LL	8gg	.
16E-	.	.
16F	8ffJ	.
16AJJ	.	.
=6	=6	=6
16BB-LL	4ee-	.
16D	.	.
16F	.	.
16B-JJ	.	.
16BB-LL	4dd)	.
16D	.	.
16F	.	.
16B-JJ	.	.
16BB-LL	4r	.
16D	.	.
16F	.	.
16A-JJ	.	.
16BB-LL	(16anLL	<
16D	16b-	.
16F	16cc	.
16A-JJ	16b-JJ	.
!!LO:LB:g=original
=7	=7	=7
16BB-LL	8a-L	.
16E-	.	.
16G	8g	.
16E-JJ	.	.
16BB-LL	8f	.
16E-	.	.
16G	8e-J	.
16E-JJ	.	.
16BB-LL	8dL	.
16C	.	.
16E-	8c	.
16FJJ	.	.
16BB-LL	8e-	.
16C	.	.
16E-	8AnJ)	.
16FJJ	.	.
=8	=8	=8
4BB-'	8B-'L	f
.	(16dL	.
.	16cJJ	.
(16BB-LL	16B-LL	.
16AA	16A	.
16BB-	16B-	.
16GGJJ)	16GJJ	.
4FF'	8F'L)	.
.	(16gL	.
.	16fJJ	.
(16E-LL	16e-LL	.
16D	16d	.
16E-	16e-	.
16CJJ)	16cJJ	.
=9	=9	=9
4BB-'	8B-'L)	.
.	(16ddL	.
.	16ccJJ	.
(16B-LL	16b-LL	.
16A	16a	.
16B-	16b-	.
16GJJ)	16gJJ)	.
4F'	8f'L	.
.	(16ggL	.
.	16ffJJ	.
(16e-LL	16ee-LL	.
16d	16dd	.
16e-	16ee-	.
16cJJ)	16ccJJ)	.
*clefG2	*	*
!!LO:LB:g=original
=10	=10	=10
(8B-L	(8b-L	.
16cL	16ccL	.
16dJJ	16ddJJ	.
16e-LL	16ee-LL	.
16f	16ff	.
16g	16gg	.
16aJJ)	16aaJJ)	.
(16b-LL	(16bb-LLM	.
16a	16aa	.
16b-	16bb-	.
16ccJJ)	16cccJJ)	.
(16ddLL	(16dddLLm	.
16cc	16ccc	.
16dd	16ddd	.
16eenJJ)	16eeenJJ)	.
=11	=11	=11
4ff'	4fff'	.
*clefF4	*	*
4F'	4f'	.
4r	2r	.
16BB-LL	.	f
16AA	.	.
16BB-	.	.
16FFJJ	.	.
=12	=12	=12
16DLL<	1r	.
16C#	.	.
16D	.	.
16BB-JJ	.	.
16FLL	.	.
16En	.	.
16F	.	.
16DJJ	.	.
16B-LL	.	.
16A	.	.
16B-	.	.
16FJJ	.	.
16dLL	.	.
16c#	.	.
16d	.	.
16B-JJ	.	.
!!LO:LB:g=original
=13	=13	=13
!LO:DY:rj	!	!
(4..fz	2r	.
16e-	.	.
8.dL	([2ff^z	.
16ck	.	.
8.B-	.	.
16A-Jk)	.	.
=14	=14	=14
*	*^	*
(2G	2ff]	4r	.
.	.	(4bn	p
4A-	4ee-	4cc	<
4F#	[4dd	4an	.
=15	=15	=15	=15
4G	4dd]	4b-	.
4En	2cc	4g	.
4F	.	4a	.
4D)	4bn)	4f)	.
*	*v	*v	*
=16	=16	=16
8CC 8CL	16ccLL	sf
.	16en 16g	.
8c	16cc	.
.	16e 16gJJ	.
8c	16ccLL	.
.	16e 16g	.
8cJ	16dd	.
.	16e 16gJJ	.
8cL	16eenLL>	.
.	16g 16b-	.
8c	16cc	.
.	16g 16b-JJ	.
8c	16ddLL>	.
.	16g 16b-	.
8cJ	16ee	.
.	16g 16b-JJ	.
!!LO:LB:g=original
=17	=17	=17
8cL	16ffLL>	.
.	16f 16a	.
8c	16ff	.
.	16f 16aJJ	.
8c	16ffLL>	.
.	16f 16a	.
8cJ	16een	.
.	16f 16aJJ	.
8cL	16ddLL	.
.	16f 16a-	.
8c	16cc	.
.	16f 16a-JJ	.
8c	16bnLL	.
.	16f 16a-	.
8cJ	16dd	.
.	16f 16a-JJ	.
=18	=18	=18
8CC 8CL	16ccLL	sf
.	16en 16g	.
8c	16bn	.
.	16e 16gJJ	.
8c	16ccLL	.
.	16e 16g	.
8cJ	16dd	.
.	16e 16gJJ	.
8cL	16eenLL>	.
.	16g 16b-	.
8c	16cc	.
.	16g 16b-JJ	.
8c	16ddLL>	.
.	16g 16b-	.
8cJ	16ee	.
.	16g 16b-JJ	.
=19	=19	=19
8cL	16ffLL>	.
.	16f 16a	.
8c	16ff	.
.	16f 16aJJ	.
8c	16ffLL>	.
.	16f 16a	.
8cJ	16een	.
.	16f 16aJJ	.
8cL	16ddLL	.
.	16f 16a-	.
8c	16cc	.
.	16f 16a-JJ	.
8c	16bnLL	.
.	16f 16a-	.
8cJ	16dd	.
.	16f 16a-JJ	.
!!LO:LB:g=original
=20	=20	=20
8CL	16ccLL	sf
.	16en 16g	.
8c	16cc	.
.	16e 16gJJ	.
8c	16bnLL	.
.	16f 16a-	.
8cJ	16dd	.
.	16f 16a-JJ	.
8CL	16ccLL	sf
.	16e 16g	.
8c	16cc	.
.	16e 16gJJ	.
8c	16bLL	.
.	16f 16a-	.
8cJ	16dd	.
.	16f 16a-JJ	.
=21	=21	=21
4C	16en 16g 16cc	.
.	16cLL	.
.	16d	.
.	16eJJ	>
4r	16fLL	.
.	16g	.
.	16an	.
.	16bnJJ	.
2r	16ccLL>	.
.	16b	.
.	16cc	.
.	16bJJ	.
.	16ccLL>	.
.	16b	.
.	16cc	.
.	16bJJ	.
=22	=22	=22
16r	2a (2cc	pp
16FLL	.	.
16G	.	.
16AJJ	.	.
16B-LL	.	.
16c	.	.
16d	.	.
16enJJ	.	.
16fLL	4a\	.
16e	.	.
16f	.	.
16eJJ	.	.
16fLL	4ff	.
16e	.	.
16f	.	.
16eJJ	.	.
!!LO:LB:g=original
=23	=23	=23
16fLL	4a 4cc	.
16en	.	.
16f	.	.
16eJJ	.	.
16fLL	4ff 4aa	.
16e	.	.
16f	.	.
16eJJ	.	.
16fLL	4a 4cc	.
16e	.	.
16f	.	.
16eJJ	.	.
16fLL	4aa 4ccc)	.
16e	.	.
16f	.	.
16eJJ	.	.
=24	=24	=24
16fLL	2a (>2cc	.
16F	.	.
16G	.	.
16AJJ	.	.
16B-LL	.	.
16c	.	.
16d	.	.
16enJJ	.	.
16fLL	4a\	.
16e	.	.
16f	.	.
16eJJ	.	.
16fLL	4ff	.
16e	.	.
16f	.	.
16eJJ	.	.
=25	=25	=25
16fLL	4a 4cc	.
16en	.	.
16f	.	.
16eJJ	.	.
16fLL	4ff 4aa	.
16e	.	.
16f	.	.
16eJJ	.	.
16fLL	4a 4cc	.
16e	.	.
16f	.	.
16eJJ	.	.
16fLL	4aa 4ccc)	.
16e-	.	.
16f	.	.
16e-JJ	.	.
!!LO:LB:g=original
=26	=26	=26
*	*^	*
16c#LL	2dd 2ff#	2a 2cc	.
16d	.	.	.
16c#	.	.	.
16dJJ	.	.	.
16BnLL	.	.	.
16cn	.	.	.
16B	.	.	.
16cJJ	.	.	.
16G#LL	2r	2r	.
16A	.	.	.
16G#	.	.	.
16AJJ	.	.	.
16E#LL	.	.	.
16F#	.	.	.
16E#	.	.	.
16F#JJ	.	.	.
*	*v	*v	*
=27	=27	=27
16C#LL	4r	.
16D	.	.
16C#	.	.
16DJJ	.	.
16BBnLL	(4ff#	<
16Cn	.	.
16BB	.	.
16CJJ	.	.
16GG#LL	4aa	.
16AA	.	.
16GG#	.	.
16AAJJ	.	.
16EE#LL	[4ccc)	.
16FF#	.	.
16EE#	.	.
16FF#JJ	.	.
=28	=28	=28
*	*^	*
16CC#LL	(4ccc]	(2ff#	.
16DD	.	.	.
16CC#	.	.	.
16DDJJ	.	.	.
16CC#LL	[4bb-	.	.
16DD	.	.	.
16CC#	.	.	.
16DDJJ	.	.	.
!	!LO:N:vis=2	!	!
16DDLL	4bb-__	[>4gg	.
16EE-	.	.	.
16DD	.	.	.
16EE-JJ	.	.	.
16DD#LL	4gg_	4dd-	.
16EEn	.	.	.
16DD#	.	.	.
16EEJJ	.	.	.
!!LO:LB:g=original
=29	=29	=29	=29
16EEnLL	4gg] 4bb-]]	2cc	f
16FF	.	.	.
16EE	.	.	.
16FFJJ	.	.	.
16EELL	4ff 4aa	.	.
16FF	.	.	.
16EE	.	.	.
16FFJJ	.	.	.
16AAALL	4ddn 4gg	4b-	.
16BBB-	.	.	.
16AAA	.	.	.
16BBB-JJ	.	.	.
16BBBnLL	4b- 4een	4g	.
16CC	.	.	.
16BBB	.	.	.
16CCJJ	.	.	.
=30	=30	=30	=30
4FFF	4ff)	)4f 4a	.
4r	4r	4r	.
(>2F 2A	(2f 2a	2ryy	sf
*	*v	*v	*
=31	=31	=31
4D 4F	4d 4f	.
4BB-\ 4D\)	4B-) 4d	.
(4.G 4.B-	(4.g 4.b-	sf
8F 8A	8f 8a	.
=32	=32	=32
4En 4G	4en 4g	.
4C 4E)	4c) 4e	.
(2A 2c	(2a/ 2cc/	sf
=33	=33	=33
4F 4A	4f 4a	.
4D 4F)	4d) 4f	.
(4.B- 4.d	4.b- (4.dd	sf
8A 8c	8a 8cc	.
!!LO:LB:g=original
=34	=34	=34
4G 4B-	4g 4b-	.
4En 4G)	4en 4g)	.
!	!	!LO:DY:rj
(4.B- 4.g	4.b- (4.gg	sf
8A 8f	8a 8ff	.
=35	=35	=35
4.G 4.en	4.g 4.een	f
8F 8d)	8f\ 8dd\)	.
(<4En 4c	(>/4en 4cc/	.
4D 4F	4B- 4b-	.
=36	=36	=36
!	!	!LO:HP:t=decresc.
4C# 4En	4A 4a	>
4AA\ 4E\	4c# 4g	.
4BB-\ 4D\	4d 4f	.
4BBn)	4F< 4G< 4d)	.
=37	=37	=37
2C	4rA<	pp
.	4F< 4A< 4c<	.
!	!	!LO:DY:b=2:rj
2CC	4rA<	pp
.	4C< 4En< 4G< 4c<	.
=38	=38	=38
2FFF/	4rF<	.
.	4C< 4F< 4A<	.
!LO:DY:rj	!	!
4.Fz 4.Az	8r	.
!	!LO:DY:rj:b	!
.	4fz 4az	.
8F 8A	8f 8a	.
=39	=39	=39
8D 8F	8r	.
8r	8d 8f	.
8BB- 8D	8r	.
8r	8B- 8d	.
!LO:DY:rj	!	!
4.Gz (4.B-z	8r	.
!	!LO:DY:rj	!
.	(4gz 4b-z	.
8F 8A	8f) 8a	.
!!LO:LB:g=original
=40	=40	=40
8En 8G)	8r	.
8r	8en 8g	.
8C 8E	8r	.
8r	8c 8e	.
4.Az 4.cz	8r	.
!	!LO:DY:rj:b	!
.	4a/z 4cc/zL	.
8A 8c	8a/ 8cc/	.
=41	=41	=41
8F 8A	8r	.
8r	8f 8a	.
8D 8F	8r	.
8r	8d 8f	.
!LO:DY:rj	!	!
4.B-z (4.dz	8r	.
!	!LO:DY:rj:b	!
.	4b-z (4ddz	.
8A 8c	8a 8cc)	.
=42	=42	=42
8G 8B-)	8r	.
8r	8g 8b-	.
8En 8G	8r	.
8r	8en 8g	.
!LO:DY:rj	!	!
4.B-z (4.gz	8r	.
!	!LO:DY:rj:b	!
.	(4b- 4gg	.
8A 8f)	8a )8ff	.
=43	=43	=43
!LO:DY:rj	!	!
4.Gz (4.enz	8r	.
!	!LO:DY:rj:b	!
.	4gz (4eenz	.
8F 8d)	8f 8dd)	.
8En 8c	8r	.
8r	8en 8cc	.
8D 8F	8r	.
8r	8B- 8b-	.
=44	=44	=44
1C# 1En 1G	(>16aLL	<
.	16A	.
.	16c#	.
.	16enJJ	.
.	16aLL	.
.	16cc#	.
.	16een	.
.	16gg#JJ	.
.	16aaLL	.
.	16gg#	.
.	16aa	.
.	16gg#JJ	.
.	16aaLL	.
.	16ee	.
.	16cc#	.
.	16aJJ)	.
!!LO:LB:g=original
=45	=45	=45
1D 1F	16r	.
.	(16ALL	.
.	16d	.
.	16fJJ	.
.	16aLL	.
.	16dd	.
.	16ff	.
.	16gg#JJ	.
.	16aaLL	.
.	16gg#	.
.	16aa	.
.	16gg#JJ	.
.	16aaLL	.
.	16ff	.
.	16dd	.
.	16aJJ)	.
=46	=46	=46
1BBn 1D 1F	16r	.
.	(16A-LL	.
.	16Bn	.
.	16dJJ	.
.	16fLL<	.
.	16a-	.
.	16bn	.
.	16ddJJ	.
.	16ffLL	.
.	16dd	.
.	16aa-	.
.	16ffJJ	.
.	16ddLL<	.
.	16b	.
.	16a-	.
.	16fJJ)	.
=47	=47	=47
!	!	!LO:DY:a=2
[2BB-X [2D- [2En [2G	16r	rfz
.	(16enLL	mf
.	16g	.
.	16b-XJJ	.
.	16dd-LL	.
.	16een	.
.	16gg	.
.	16bb-XJJ	.
8BB-] 8D-] 8E] 8GL]	16ddd-LL	.
.	16eeen)	.
8BB-' 8C' 8G'	16een	.
.	16eeeJJ	.
8BB-' 8C' 8G'	16eeLL	.
.	16eee	.
8BB-' 8C' 8G'J	16ee	.
.	16eeeJJ	.
!!LO:LB:g=original
=48	=48	=48
4AA 4C 4F	16ffLL	f
.	16fff	.
.	16een	.
.	16eeenJJ	.
8r	16ffLL	.
.	16fff	.
8EEn' 8C'	16b-	.
.	16bb-JJ	.
8FF' 8C'L	16aLL	.
.	16aa	.
8BB-' 8C'	16ee	.
.	16eeeJJ	.
8AA' 8C'	16ffLL	.
.	16fff	.
8EE' 8C'J	16b-	.
.	16bb-JJ	.
=49	=49	=49
8FF' 8C'L	16aLL	.
.	16aa	.
8BB-' 8C'	16een	.
.	16eeenJJ	.
8AA' 8C'	16ffLL	.
.	16fff	.
8EEn' 8C'J	16b-	.
.	16bb-JJ	.
8FF' 8C'L	16aLL	.
.	16aa	.
8BB-' 8C'	16ee	.
.	16eeeJJ	.
8AA' 8C'	16ffLL	.
.	16fff	.
8EE' 8C'J	16b-	.
.	16bb-JJ	.
=50	=50	=50
!LO:DY:rj	!	!
2FFz	16aLL	.
.	16aa	.
.	16g	.
.	16ggJJ	.
.	16fLL	.
.	16ff	.
.	16en	.
.	16eenJJ	.
!LO:DY:rj	!	!
2DDz	16dLL	.
.	16dd	.
.	16c	.
.	16ccJJ	.
.	16B-LL	.
.	16b-	.
.	16A	.
.	16aJJ	.
!!LO:LB:g=original
=51	=51	=51
!LO:DY:rj	!	!
2BBB-z	16G<LL/	.
.	16g\	.
.	16F</	.
.	16fJJ\	.
.	16En<LL/	.
.	16en\	.
.	16D</	.
.	16dJJ\	.
!LO:DY:rj	!	!
2CCz	16C<LL	.
.	16c<	.
.	16BB-<	.
.	16B-<JJ	.
.	16AA<LL	.
.	16A<	.
.	16GG<	.
.	16G<JJ	.
=52	=52	=52
*^	*	*
8FL	8FFF 8FF	1r	p
!	!	!	!LO:DY:b=2
(16EnL	(8BB-L	.	p
16cJJ	.	.	.
16FLL	8AA	.	.
16c	.	.	.
16B-	8EEnJ	.	.
16cJJ	.	.	.
16ALL	8FFL	.	.
16c	.	.	.
16E	8BB-	.	.
16cJJ	.	.	.
16FLL	8AA	.	.
16c	.	.	.
16B-	8EEJ	.	.
16cJJ)	.	.	.
=53	=53	=53	=53
(16ALL	8FFL	1r	<
16c	.	.	.
16En	8BB-	.	.
16cJJ	.	.	.
16FLL	8AA	.	.
16c	.	.	.
16B-	8EEnJ	.	.
16cJJ)	.	.	.
16ALL	8EEL	.	.
16c	.	.	.
16C#	8GG	.	.
16c#JJ	.	.	.
16DLL	8FF	.	.
16d	.	.	.
16E	8EEJ	.	.
16enJJ	.	.	.
*v	*v	*	*
!!LO:LB:g=original
=54	=54	=54
8DDL	16E-<LL/	.
.	16f\	.
8CCn	16E#</	.
.	16f#JJ\	.
8BBB-	16G<LL	.
.	16g	.
8AAAJ)	16A<	.
.	16aJJ	.
!LO:DY:rj	!	!
[2GGG\z	16B-LL	ff
.	16b-	.
.	16c	.
.	16ccJJ	.
.	16dLL	.
.	16dd	.
.	16c	.
.	16ccJJ	.
=55	=55	=55
2GGG]	16B-LL	.
.	16b-	.
.	16A	.
.	16aJJ	.
.	16G<LL/	.
.	16g\	.
.	16F</	.
.	16fJJ\	.
2CC	16En<LL/	.
.	16en\	.
.	16D</	.
.	16dJJ\	.
.	16C<LL/	.
.	16c\	.
.	16E</	.
.	16eJJ\	.
=56	=56	=56
*tremolo	*	*
*	*^	*
16FFFLL	2ryy	4F 4f	.
16FF	.	.	.
16FFF	.	.	.
16FF	.	.	.
16FFF	.	4r	.
16FF	.	.	.
16FFF	.	.	.
16FFJJ	.	.	.
*	*clefF4	*	*
16FFFLL	2A 2c	(4.A	p
16FF	.	.	.
16FFF	.	.	.
16FF	.	.	.
16FFF	.	.	.
16FF	.	.	.
16FFF	.	8F)	.
16FFJJ	.	.	.
=57	=57	=57	=57
16FFFLL	2B- 2d-	(4.B-	.
16FF	.	.	.
16FFF	.	.	.
16FF	.	.	.
16FFF	.	.	.
16FF	.	.	.
16FFF	.	8A-)	.
16FFJJ	.	.	.
16FFFLL	4B- 4c	(8GL	.
16FF	.	.	.
16FFF	.	8F	.
16FF	.	.	.
16FFF	4B- 4c	8G	.
16FF	.	.	.
16FFF	.	8EnJ)	.
16FFJJ	.	.	.
!!LO:LB:g=original
=58	=58	=58	=58
16FFFLL	4.c	4.F 4.An	.
16FF	.	.	.
16FFF	.	.	.
16FF	.	.	.
16FFF	.	.	.
16FF	.	.	.
16FFF	8r	8r	.
16FFJJ	.	.	.
*	*clefG2	*	*
16FFFLL	(4.a	2A 2c	.
16FF	.	.	.
16FFF	.	.	.
16FF	.	.	.
16FFF	.	.	.
16FF	.	.	.
16FFF	8f)	.	.
16FFJJ	.	.	.
=59	=59	=59	=59
16FFFLL	(4.b-	2B- 2d-	.
16FF	.	.	.
16FFF	.	.	.
16FF	.	.	.
16FFF	.	.	.
16FF	.	.	.
16FFF	8a-)	.	.
16FFJJ	.	.	.
16FFFLL	(8g-L	4B- 4d-	.
16FF	.	.	.
16FFF	8f	.	.
16FF	.	.	.
16FFF	8g-	4B- 4d-	.
16FF	.	.	.
16FFF	8enJ)	.	.
16FFJJ	.	.	.
=60	=60	=60	=60
16FFFLL	4.f	4.A 4.c	.
16FF	.	.	.
16FFF	.	.	.
16FF	.	.	.
16FFF	.	.	.
16FF	.	.	.
16FFF	8r	8r	.
16FFJJ	.	.	.
16FFFLL	(8gnL	4B- 4d-	>
16FF	.	.	.
16FFF	8f	.	.
16FF	.	.	.
16FFF	8g	4B- 4d-	.
16FF	.	.	.
16FFF	8enJ)	.	.
16FFJJ	.	.	.
=61	=61	=61	=61
16FFFLL	4.f	4.A 4.c	.
16FF	.	.	.
16FFF	.	.	.
16FF	.	.	.
16FFF	.	.	.
16FF	.	.	.
16FFF	8r	8r	.
16FFJJ	.	.	.
16FFFLL	(8g-L	4B- 4d-	pp
16FF	.	.	.
16FFF	8f	.	.
16FF	.	.	.
16FFF	8g-	4B- 4d-	.
16FF	.	.	.
16FFF	8enJ)	.	.
16FFJJ	.	.	.
*	*v	*v	*
=62	=62	=62
4.FFF 4.FF	4.F 4.f	ff
8GGG' 8GG'	8Gn' 8gn'	.
4.AAA' 4.AA'	4.A' 4.a'	sf
8BBB-' 8BB-'	8B-' 8b-'	.
!!LO:LB:g=original
=63	=63	=63
!	!	!LO:DY:rj
4.CC 4.C	4.c 4.cc	sf
8DD' 8D'	8d' 8dd'	.
8EEn' 8En'L	8en' 8een'L	.
8FF' 8F'	8f' 8ff'	.
8GG' 8G'	8g' 8gg'	.
8AA' 8A'J	8a' 8aa'J	.
=64	=64	=64
4.BB- 4.B-	4.b- 4.bb-	sf
8AA' 8A'	8a' 8aa'	.
4.GG\ 4.G\	4.g 4.gg	sf
8FF'\ 8F'\	8f' 8ff'	.
=65	=65	=65
4.EEn 4.En	4.en 4.een	sf
8DD' 8D'	8d' 8dd'	.
8CC' 8C'L	8c' 8cc'L	.
8BBB-' 8BB-'	8B-' 8b-'	.
8AAA' 8AA'	8A' 8a'	.
8GGG' 8GG'J	8G' 8g'J	.
=66	=66	=66
4FFF' 4FF'	4F' 4f'	.
4C' 4G' 4B-'	(16enLL	p
.	16d#	.
.	16e	.
.	16cJJ)	.
4F' 4A'	4f'	.
*clefG2	*	*
4c' 4g' 4b-'	(16eenLL	.
.	16dd#	.
.	16ee	.
.	16ccJJ)	.
=67	=67	=67
4f' 4a'	4ff'	.
4r	4r	.
*clefF4	*	*
4C' 4c'	4een' 4gg' 4bb-' 4ccc' 4eeen'	ff
4r	4r	.
=68	=68	=68
4FF' 4F'	4ff' 4aa' 4ccc' 4fff'	.
4r	4r	.
4r	4r	.
!!LO:LB:g=original
=:|!	=:|!	=:|!
*>B	*>B	*>B
4r	(16cLL	p
.	16Bn	.
.	16c	.
.	16AJJ	.
=69	=69	=69
4r	4f')	.
!	!	!LO:DY:rj:b=2
(16CLL	4r	p
16BBn	.	.
16C	.	.
16AAJJ	.	.
4F'/)	4r	.
4r	(16cLL	.
.	16Bn	.
.	16c	.
.	16AJJ	.
=70	=70	=70
4r	4f')	.
(16CLL	4r	.
16BBn	.	.
16C	.	.
16AAJJ	.	.
4F'/)	4r	.
(16CLL	(16cLL	<
16BB	16Bn	.
16C	16c	.
16AAJJ)	16AJJ)	.
=71	=71	=71
4.FF\ 4.F\	4.f	ff
8GG'\ 8G'\	8g'	.
4.AA 4.A	4.a	sf
8BB-X' 8B-X'	8b-X'	.
=72	=72	=72
4.C 4.c	4.cc	sf
8D' 8d'	8dd'	.
8E-X' 8e-X'L	8ee-X'L	.
8D' 8d'	8dd'	.
8C' 8c'	8cc'	.
8D' 8d'J	8dd'J	.
!!LO:LB:g=original
=73	=73	=73
4.E- (4.e-	(4.ee-	sf
8D' 8d')	8dd')	.
8C' 8c'L	8cc'L	.
8BB-' 8B-'	8b-'	.
8AA' 8A'	8a'	.
8BB-' 8B-'J	8b-'J	.
=74	=74	=74
4.C (4.c	(4.cc	sf
8BB-' 8B-')	8b-')	.
8AA' 8A'L<	8a'L	.
8GG' 8G'	8g'	.
8FF#' 8F#'	8f#'	.
8EEn' 8En'J	8en'J	.
=75	=75	=75
*	*^	*
16DDLL	2d	2ryy	fp
16D	.	.	.
16DD	.	.	.
16D	.	.	.
16DD	.	.	.
16D	.	.	.
16DD	.	.	.
16DJJ	.	.	.
16DDLL	(4.f#	2A 2c	.
16D	.	.	.
16DD	.	.	.
16D	.	.	.
16DD	.	.	.
16D	.	.	.
16DD	8d)	.	.
16DJJ	.	.	.
=76	=76	=76	=76
16DDLL	(4.g	2B-	.
16D	.	.	.
16DD	.	.	.
16D	.	.	.
16DD	.	.	.
16D	.	.	.
16DD	8fn)	.	.
16DJJ	.	.	.
16DDLL	(8e-XL	4G 4B-	.
16D	.	.	.
16DD	8d	.	.
16D	.	.	.
16DD	8e-	4G 4B-	.
16D	.	.	.
16DD	8c#J)	.	.
16DJJ	.	.	.
=77	=77	=77	=77
16DDLL	2ryy	4.F#< 4.A< 4.d	.
16D	.	.	.
16DD	.	.	.
16D	.	.	.
16DD	.	.	.
16D	.	.	.
16DD	.	8rb	.
16DJJ	.	.	.
16DDLL	(4.ff#	2a 2cc	.
16D	.	.	.
16DD	.	.	.
16D	.	.	.
16DD	.	.	.
16D	.	.	.
16DD	8dd)	.	.
16DJJ	.	.	.
!!LO:LB:g=original
=78	=78	=78	=78
16DDLL	(4.gg	2g 2b-	.
16D	.	.	.
16DD	.	.	.
16D	.	.	.
16DD	.	.	.
16D	.	.	.
16DD	8ffn)	.	.
16DJJ	.	.	.
16DDLL	(8ee-XL	4g 4b-	>
16D	.	.	.
16DD	8dd	.	.
16D	.	.	.
16DD	8ee-	4g 4b-	.
16D	.	.	.
16DD	8cc#J)	.	.
16DJJ	.	.	.
=79	=79	=79	=79
16DDLL	4.f# 4.a 4.dd	2ryy	.
16D	.	.	.
16DD	.	.	.
16D	.	.	.
16DD	.	.	.
16D	.	.	.
16DD	8r	.	.
16DJJ	.	.	.
16DDLL	(8eenL	4g 4b-	.
16D	.	.	.
16DD	8dd	.	.
16D	.	.	.
16DD	8ee	4g 4b-	.
16D	.	.	.
16DD	8cc#J)	.	.
16DJJ	.	.	.
=80	=80	=80	=80
16DDLL	4.dd	4.f# 4.a	.
16D	.	.	.
16DD	.	.	.
16D	.	.	.
16DD	.	.	.
16D	.	.	.
16DD	8r	8r	.
16DJJ	.	.	.
16DDLL	(8ee-XL	4g 4b-	pp
16D	.	.	.
16DD	8dd	.	.
16D	.	.	.
16DD	8ee-	4g 4b-	.
16D	.	.	.
16DD	8cc#J)	.	.
16DJJ	.	.	.
*	*v	*v	*
=81	=81	=81
*	*	*^
!	!	!	!LO:DY:b=2:rj
4.DD	4f# 4a 4dd	f	ff
*	*	*v	*v
.	4r	.
8EEn'	.	.
4.FF# 4.D	2r	.
8GG' 8En'	.	.
=82	=82	=82
4.AA 4.C 4.F#	4r	.
.	8ee-XL	ff
8BB-' 8D' 8G'	8dd'J	.
8F#' 8A'L	8cc'L<	.
8G' 8B-'	8b-'	.
8A' 8c'	8a'	.
8B-' 8d'J	8g'J	.
!!LO:LB:g=original
=83	=83	=83
4c' 4e-'	4f#'	.
4r	(16aaLL	.
.	16gg#	.
.	16aa	.
.	16ff#JJ	.
2r	16cccLL	.
.	16bbn	.
.	16ccc	.
.	16aaJJ	.
.	16eee-LL	.
.	16ddd	.
.	16ccc	.
.	16bb-JJ	.
=84	=84	=84
1r	16aaLL	.
.	16bb-	.
.	16ccc	.
.	16bb-JJ	.
.	16aaLL	.
.	16gg	.
.	16ff#	.
.	16ggJJ	.
.	16aaLL	.
.	16gg	.
.	16ff#	.
.	16ee-JJ	.
.	16ddLL	.
.	16cc	.
.	16bn	.
.	16ccJJ)	.
=85	=85	=85
!	!	!LO:DY:b=2:rj
4.GG	4bn	ff
.	4r	.
8AA'	.	.
4.BBn 4.G	2r	.
8C' 8A'	.	.
=86	=86	=86
4.D 4.F 4.Bn	4r	.
.	8aa-'L	ff
8E-' 8G' 8c'	8gg'J	.
*clefG2	*	*
8Bn' 8d'L	8ffn'L	.
8c' 8e-'	8ee-'	.
8d' 8f'	8dd'	.
8e-' 8g'J	8cc'J	.
!!LO:LB:g=original
=87	=87	=87
4f' 4a-'	4bn'	.
4r	(>16ddLL	.
.	16cc#	.
.	16dd	.
.	16bJJ	.
2r	16ffLL	.
.	16een	.
.	16ff	.
.	16ddJJ	.
.	16aa-LL	.
.	16gg	.
.	16ff	.
.	16ee-JJ	.
=88	=88	=88
1r	16ddLL	.
.	16ee-	.
.	16ff	.
.	16ee-JJ	.
.	16ddLL	.
.	16cc	.
.	16bn	.
.	16ccJJ	.
.	16ddLL	.
.	16cc	.
.	16b	.
.	16a-JJ	.
.	16gLL	.
.	16f	.
.	16en	.
.	16fJJ)	.
*clefF4	*	*
=89	=89	=89
!	!	!LO:DY:b=2:rj
4.CC	4en	ff
.	4r	.
8DD'	.	.
4.EE- 4.C	2r	.
8FF' 8D'	.	.
=90	=90	=90
4.GG 4.BB- 4.En	4r	.
!	!	!LO:DY:rj:b
.	8dd-'L	ff
8AA-' 8C' 8F'	8cc'J	.
8En' 8G'L	8b-'L	.
8F' 8A-'	8a-'	.
8G' 8B-'	8g'	.
8A-' 8c'J	8f'J	.
!!LO:LB:g=original
=91	=91	=91
4B-' 4d-'	4en'	.
4r	(16ggLL	.
.	16ff#	.
.	16gg	.
.	16eenJJ	.
2r	16bb-LL	.
.	16aa	.
.	16bb-	.
.	16ggJJ	.
.	16ddd-LL	.
.	16ccc	.
.	16ddd-	.
.	16cccJJ)	.
=92	=92	=92
*^	*	*
4r	1BB-	(16ddd-LL	.
.	.	16bb-	.
.	.	16gg	.
.	.	16eenJJ	.
[4D-	.	16bb-LL	.
.	.	16gg	.
.	.	16ee	.
.	.	16dd-JJ	.
4D-_ [4En	.	16ggLL	.
.	.	16ee	.
.	.	16dd-	.
.	.	16b-JJ	.
4D-] 4E] 4G	.	16eeLL	.
.	.	16dd-	.
.	.	16b-	.
.	.	16gJJ)	.
=93	=93	=93	=93
4r	1AA-	4r	.
[4C	.	(16ffLL	.
.	.	16een	.
.	.	16ff	.
.	.	16ccJJ	.
4C_ [4F	.	16aa-LL	.
.	.	16gg	.
.	.	16aa-	.
.	.	16ffJJ	.
4C] 4F] 4A-	.	16cccLL	.
.	.	16bbn	.
.	.	16ccc	.
.	.	16aa-JJ)	.
!!LO:LB:g=original
=94	=94	=94	=94
4r	1AA-	(16fffLL	.
.	.	16ccc	.
.	.	16aa-	.
.	.	16ffJJ	.
[4C	.	16cccLL	.
.	.	16aa-	.
.	.	16ff	.
.	.	16ccJJ	.
4C_ [4F	.	16aa-LL	.
.	.	16ff	.
.	.	16cc	.
.	.	16a-JJ	.
4C] 4F] 4A-	.	16ffLL	.
.	.	16cc	.
.	.	16a-	.
.	.	16fJJ)	.
=95	=95	=95	=95
4r	1GG	4r	.
[4D	.	(16ffLL	.
.	.	16een	.
.	.	16ff	.
.	.	16ddJJ	.
4D_ [4F	.	16bbnLL	.
.	.	16aa#	.
.	.	16bb	.
.	.	16ffJJ	.
4D] 4F] 4G	.	16dddLL	.
.	.	16ccc#	.
.	.	16ddd	.
.	.	16bbnJJ)	.
=96	=96	=96	=96
4r	1GG	(16fffLL	.
.	.	16ddd	.
.	.	16bbn	.
.	.	16ffJJ	.
[4BBn	.	16dddLL	.
.	.	16bb	.
.	.	16ff	.
.	.	16ddJJ	.
4BB_ [4D	.	16bbLL	.
.	.	16ff	.
.	.	16dd	.
.	.	16bnJJ	.
4BB] 4D] 4G	.	16ffLL	.
.	.	16dd	.
.	.	16b	.
.	.	16fJJ)	.
!!LO:LB:g=original
=97	=97	=97	=97
4r	1GG	4r	.
[4C	.	(16ee-XLL	.
.	.	16dd	.
.	.	16ee-	.
.	.	16ccJJ	.
4C_ [4E-	.	16ggLL	.
.	.	16ff#	.
.	.	16gg	.
.	.	16ee-JJ	.
4C] 4E-] 4G	.	16cccLL	.
.	.	16bbn	.
.	.	16ccc	.
.	.	16ggJJ)	.
=98	=98	=98	=98
4r	1GG-	(16eee-LL	.
.	.	16ccc	.
.	.	16aan	.
.	.	16ee-JJ	.
[4C	.	16cccLL	.
.	.	16aa	.
.	.	16ee-	.
.	.	16ccJJ	.
4C_ [4E-	.	16aaLL	.
.	.	16ee-	.
.	.	16cc	.
.	.	16aJJ	.
4C] 4E-] 4G-	.	16ee-LL<	.
.	.	16cc	.
.	.	16a	.
.	.	16e-JJ)	.
=99	=99	=99	=99
4r	1FF	4r	.
[4C	.	(16ee-LL	.
.	.	16dd	.
.	.	16ee-	.
.	.	16ccJJ	.
4C_ [4E-	.	16aaLL	.
.	.	16gg#	.
.	.	16aa	.
.	.	16ee-JJ	.
4C] 4E-] 4F	.	16cccLL	.
.	.	16bbn	.
.	.	16ccc	.
.	.	16aaJJ)	.
!!LO:LB:g=original
=100	=100	=100	=100
4r	1FF	(16eee-LL	.
.	.	16ccc	.
.	.	16aa	.
.	.	16ee-JJ	.
[4AA	.	16cccLL	.
.	.	16aa	.
.	.	16ee-	.
.	.	16ccJJ	.
4AA_ [4C	.	16aaLL	.
.	.	16ee-	.
.	.	16cc	.
.	.	16aJJ	.
4AA] 4C] 4F	.	16ee-LL<	.
.	.	16cc	.
.	.	16a	.
.	.	16e-JJ)	.
=101	=101	=101	=101
4r	1FF	4r	p
[4BB-	.	(16dd-LL	.
.	.	16cc	.
.	.	16dd-	.
.	.	16b-JJ	.
4BB-_ [4D-	.	16ffLL	.
.	.	16een	.
.	.	16ff	.
.	.	16dd-JJ	.
4BB-] 4D-] 4F	.	16bb-LL	.
.	.	16aa	.
.	.	16bb-)	.
.	.	16ffJJ	.
=102	=102	=102	=102
4r	1FF-	(16ddd-LL	.
.	.	16bb-	.
.	.	16gg	.
.	.	16dd-JJ	.
[4BB-	.	16bb-LL	.
.	.	16gg	.
.	.	16dd-	.
.	.	16b-JJ	.
4BB-_ [4D-	.	16ggLL	.
.	.	16dd-	.
.	.	16b-	.
.	.	16gJJ	.
4BB-] 4D-] 4F-	.	16dd-LL	.
.	.	16b-	.
.	.	16g	.
.	.	16d-JJ)	.
!!LO:LB:g=original
=103	=103	=103	=103
4r	1EE-	4r	.
[4BB-	.	(16dd-LL	.
.	.	16cc	.
.	.	16dd-	.
.	.	16b-JJ	.
4BB-_ [4D-	.	16ggLL	.
.	.	16ff#	.
.	.	16gg	.
.	.	16dd-JJ	.
4BB-] 4D-] 4E-	.	16bb-LL	.
.	.	16aa	.
.	.	16bb-	.
.	.	16ggJJ)	.
=104	=104	=104	=104
4r	1EE-	16ddd-LL	.
.	.	16bb-	.
.	.	16gg	.
.	.	16dd-JJ	.
!	!	!	!LO:HP:t=legato e %s
[4BB-	.	16bb-LL	>
.	.	16gg	.
.	.	16dd-	.
.	.	16b-JJ	.
4BB-_ [4D-	.	16ggLL	.
.	.	16dd-	.
.	.	16b-	.
.	.	16gJJ	.
4BB-] 4D-] 4E-	.	16dd-LL	.
.	.	16b-	.
.	.	16g	.
.	.	16d-JJ	.
*v	*v	*	*
=105	=105	=105
(4.EE-	16b-LL	p
.	16g	.
.	16d-	.
.	16B-JJ	.
.	16gLL	.
.	16d-	.
8FF	16B-	.
.	16GJJ	.
4.GG	16e-LL	.
.	16d-	.
.	16B-	.
.	16GJJ	.
.	16e-LL	.
.	16d-	.
8AA-)	16B-	.
.	16GJJ	.
!!LO:LB:g=original
=106	=106	=106
(4.BB-	16e-LL	.
.	16d-	.
.	16B-	.
.	16GJJ	.
.	16e-LL	.
.	16d-	.
8C	16B-	.
.	16GJJ	.
8D-L	16e-LL	.
.	16d-	.
8C	16B-	.
.	16GJJ	.
8BB-	16e-LL	.
.	16d-	.
8AA-J)	16B-	.
.	16GJJ	.
=107	=107	=107
(4.GG	16e-LL	.
.	16d-	.
.	16B-	.
.	16GJJ	.
.	16e-LL	.
.	16d-	.
8AA-	16B-	.
.	16GJJ	.
8BB-L	16e-LL	.
.	16d-	.
8AA-	16B-	.
.	16GJJ	.
8GG	16e-LL	.
.	16d-	.
8FFJ)	16B-	.
.	16GJJ	.
=108	=108	=108
4EE-	16e-LL	.
.	16d-	.
.	16B-	.
.	16GJJ	.
4r	16e-LL	.
.	16d-	.
.	16B-	.
.	16GJJ	.
2r	16e-LL	.
.	16d-	.
.	16B-	.
.	16GJJ	.
.	16e-LL	.
.	16d-	.
.	16B-	.
.	16GJJ	.
!!LO:LB:g=original
=109	=109	=109
(4.CC	16enLL	pp
.	16d-	.
.	16B-	.
.	16GJJ	.
.	16eLL	.
.	16d-	.
8DDn	16B-	.
.	16GJJ	.
4.EEn	16eLL	.
.	16d-	.
.	16B-	.
.	16GJJ	.
.	16eLL	.
.	16d-	.
8FF)	16B-	.
.	16GJJ	.
=110	=110	=110
(4.GG	16enLL	.
.	16d-	.
.	16B-	.
.	16GJJ	.
.	16eLL	.
.	16d-	.
8AA-	16B-	.
.	16GJJ	.
8BB-L	16eLL	.
.	16d-	.
8AA-	16B-	.
.	16GJJ	.
8GG	16eLL	.
.	16d-	.
8FFJ)	16B-	.
.	16GJJ	.
=111	=111	=111
(4.EEn	16enLL	.
.	16d-	.
.	16B-	.
.	16GJJ	.
.	16eLL	.
.	16d-	.
8FF	16B-	.
.	16GJJ	.
8GGL	16eLL	.
.	16d-	.
8FF	16B-	.
.	16GJJ	.
8EE	16eLL	.
.	16d-	.
8DDnJ	16B-	.
.	16GJJ	.
!!LO:LB:g=original
=112	=112	=112
4CC)	16enLL	.
.	16d-	.
.	16B-	.
.	16GJJ	.
4r	16eLL	.
.	16d-	.
.	16B-	.
.	16GJJ	.
2r	16eLL	.
.	16c	.
.	16B-	.
.	16GJJ	.
.	16eLL	.
.	16c	.
.	16B-	.
.	16GJJ	.
=113	=113	=113
(4.FFF	16e-LL	.
.	16c	.
.	16An	.
.	16G-JJ	.
.	16e-LL	.
.	16c	.
8GGG	16A	.
.	16G-JJ	.
4.AAAn	16e-LL	.
.	16c	.
.	16A	.
.	16G-JJ	.
.	16e-LL	.
.	16c	.
8BBB-)	16A	.
.	16G-JJ	.
=114	=114	=114
(4.CC	16e-LL	.
.	16c	.
.	16A	.
.	16G-JJ	.
.	16e-LL	.
.	16c	.
8DD-	16A	.
.	16G-JJ	.
8EE-L	16e-LL	.
.	16c	.
8DD-	16A	.
.	16G-JJ	.
8CC	16e-LL	.
.	16c	.
8BBB-J)	16A	.
.	16G-JJ	.
!!LO:LB:g=original
=115	=115	=115
(4.AAA	16e-LL	.
.	16c	.
.	16A	.
.	16G-JJ	.
.	16e-LL	.
.	16c	.
8BBB-	16A	.
.	16G-JJ	.
8CCL	16e-LL	.
.	16c	.
8BBB-	16A	.
.	16G-JJ	.
8AAA	16e-LL	.
.	16c	.
8GGGJ)	16A	.
.	16G-JJ	.
=116	=116	=116
[1FFF	16e-LL	pp
.	16c	.
.	16A	.
.	16G-JJ	.
.	16e-LL	.
.	16c	.
.	16A	.
.	16G-JJ	.
.	16e-LL	.
.	16c	.
.	16A	.
.	16FJJ	.
.	16e-LL	.
.	16c	.
.	16A	.
.	16FJJ	.
=117	=117	=117
2FFF]	16e-LL	.
.	16c	.
.	16A	.
.	16FJJ	.
.	16e-LL	.
.	16c	.
.	16A	.
.	16FJJ	.
(8CCL	16e-LL	.
.	16c	.
8BBB-	16A	.
.	16FJJ	.
8AAA	16e-LL	.
.	16c	.
8GGGJ)	16A	.
.	16FJJ	.
!!LO:LB:g=original
=118	=118	=118
[1FFF	16e-LL	.
.	16c	.
.	16A	.
.	16FJJ	.
.	16e-LL	.
.	16c	.
.	16A	.
.	16FJJ	.
.	16e-LL	.
.	16c	.
.	16A	.
.	16FJJ	.
.	16e-LL	.
.	16c	.
.	16A	.
.	16FJJ	.
=119	=119	=119
2FFF]	16e-LL	.
.	16c	.
.	16A	.
.	16FJJ	.
.	16e-LL	.
.	16c	.
.	16A	.
.	16FJJ	.
(8CCL	16e-LL	.
.	16c	.
8BBB-	16A	.
.	16FJJ	.
8AAA	16e-LL	.
.	16c	.
8GGGJ)	16A	.
.	16FJJ	.
=120	=120	=120
2FFF	16e-LL	<
.	16c	.
.	16A	.
.	16FJJ	.
.	16e-LL	.
.	16c	.
.	16A	.
.	16FJJ	.
(8CCL	16e-LL	.
.	16c	.
8BBB-	16A	.
.	16FJJ	.
8AAA	16e-LL	.
.	16c	.
8GGGJ)	16A	.
.	16FJJ	.
!!LO:LB:g=original
=121	=121	=121
2FFF	16e-LL	.
.	16c	.
.	16A	.
.	16FJJ	.
.	16e-LL	.
.	16c	.
.	16A	.
.	16FJJ	.
(8CCL	16e-LL	.
.	16c	.
8BBB-	16A	.
.	16FJJ	.
8AAA	16e-LL	.
.	16c	.
8GGGJ)	16A	.
.	16FJJ	.
=122	=122	=122
(4.FFF	16e-LL	.
.	16c	.
.	16A	.
.	16FJJ	.
.	16e-LL	.
.	16c	.
8GGG	16A	.
.	16FJJ	.
8AAAL	16e-LL	.
.	16c	.
8BBB-	16A	.
.	16FJJ	.
8CC	16e-LL	.
.	16c	.
8DDJ	16A	.
.	16FJJ	.
=123	=123	=123
8EE-L	16e-LL	.
.	16c	.
8EEn	16A	.
.	16FJJ	.
8FF	16e-LL	.
.	16c	.
8GGJ	16A	.
.	16FJJ	.
8AAL	16e-LL	.
.	16c	.
8BB-	16A	.
.	16FJJ	.
8C	16e-LL	.
.	16c	.
8DJ)	16A	.
.	16FJJ	.
!!LO:LB:g=original
=124	=124	=124
*	*^	*
1FF 1E-X	8rc<	8rb	.
*	*v	*v	*
!	!	!LO:HP:b=2
.	(8En<L	>
.	8F<	.
.	8G<J	.
.	8A<L	.
.	8B-<	.
.	8c<	.
.	8d<J	.
*	*	*
=125	=125	=125
2FF 2C	8e-XL	.
.	8en	.
.	8f	.
.	8gJ	.
2FF 2BB-	8aL>	.
.	8b-	.
.	8cc	.
.	8ddJ)	.
=126	=126	=126
[1FF [1AA [1F	[1e-X [1cc [1ee-X	pp
=127	=127	=127
*	*^	*
2.FF;<] 2.AA;] 2.F;]	2.ryy	2.e-\;>] 2.cc;] 2.ee-;]	.
4r	(4d	16B-LL\	p
.	.	16A\	.
.	.	16B-\	.
.	.	16F</JJ	.
!!LO:LB:g=original
=128	=128	=128	=128
4BBB-' 4BB-'	4f')	4d	.
4BBB-' 4BB-'	4d'	4B-	.
2r	4r	4r	.
.	(4d	16B-\LL	.
.	.	16A\	.
.	.	16B-\	.
.	.	16F</JJ	.
=129	=129	=129	=129
4BBB-' 4BB-'	4f')	4d	.
4BBB-' 4BB-'	4d'	4B-	.
2r	4r	4r	.
.	4d'	16B-\LL	.
.	.	16A\	.
.	.	16B-\	.
.	.	16F</JJ	.
=130	=130	=130	=130
1r	4f'	16dLL	<
.	.	16c#	.
.	.	16d	.
.	.	16B-JJ	.
.	4b-'	16fLL	.
.	.	16en	.
.	.	16f	.
.	.	16dJJ	.
.	4dd'	16b-LL	.
.	.	16a	.
.	.	16b-	.
.	.	16fJJ	.
.	4ff'	16ddLL	.
.	.	16cc#	.
.	.	16dd	.
.	.	16b-JJ	.
*	*v	*v	*
!!LO:LB:g=original
=131	=131	=131
16BB-LL	(2.bb-	fp
16D	.	.
16F	.	.
16B-JJ	.	.
16BB-LL	.	.
16D	.	.
16F	.	.
16B-JJ	.	.
16BB-LL	.	.
16D	.	.
16F	.	.
16B-JJ	.	.
16BB-LL	16aaLL	.
16D	16bb-	.
16F	16ccc	.
16B-JJ	16bb-JJ	.
=132	=132	=132
16BB-LL	8aaL	.
16E-	.	.
16G	8gg	.
16B-JJ	.	.
16BB-LL	8ff	.
16E-	.	.
16G	8ee-J	.
16B-JJ	.	.
16BB-LL	8ddL	.
16E-	.	.
16F	8cc	.
16AJJ	.	.
16BB-LL	8gg	.
16E-	.	.
16F	8ffJ)	.
16AJJ	.	.
=133	=133	=133
16BB-LL	(4ee-	.
16D	.	.
16F	.	.
16B-JJ	.	.
16BB-LL	4dd)	.
16D	.	.
16F	.	.
16B-JJ	.	.
16BB-LL	4r	.
16D	.	.
16F	.	.
16A-JJ	.	.
16BB-LL	(>16anLL	<
16D	16b-	.
16F	16cc	.
16A-JJ	16b-JJ	.
!!LO:LB:g=original
=134	=134	=134
16BB-LL	8a-L	.
16E-	.	.
16G	8g	.
16E-JJ	.	.
16BB-LL	8f	.
16E-	.	.
16G	8e-J	.
16E-JJ	.	.
16BB-LL	8dL	.
16C	.	.
16E-	8c	.
16FJJ	.	.
16BB-LL	8e-	.
16C	.	.
16E-	8AnJ)	.
16FJJ	.	.
=135	=135	=135
4BB-'	8B-L	.
.	(16dL	f
.	16cJJ	.
(16BB-LL	16B-LL	.
16AA	16A	.
16BB-	16B-	.
)16GGJJ	16GJJ)	.
4FF'	8F'L	.
.	(16gL	.
.	16fJJ	.
(16E-LL>	16e-LL	.
16D	16d	.
16E-	16e-	.
16CJJ	16cJJ	.
=136	=136	=136
4BB-')	8B-'L)	.
.	(16ddL	.
.	16ccJJ	.
(16B-LL	16b-LL	.
16A	16a	.
16B-	16b-	.
16GJJ	16gJJ)	.
4F')	8f'L	.
.	(16ggL	.
.	16ffJJ	.
*clefG2	*	*
(16e-LL	16ee-LL	.
16d	16dd	.
16e-	16ee-	.
16cJJ)	16ccJJ)	.
!!LO:LB:g=original
=137	=137	=137
(8B-L	(8b-L	.
16cL	16ccL	.
16dJJ	16ddJJ	.
16e-LL	16ee-LL	.
16f	16ff	.
16g	16gg	.
16aJJ)	16aaJJ)	.
(16b-LL	(16bb-LLM	.
16a	16aa	.
16b-	16bb-	.
16ccJJ)	16cccJJ)	.
(16ddLL	(16dddLLm	.
16cc	16ccc	.
16dd	16ddd	.
16eenJJ)	16eeenJJ)	.
=138	=138	=138
*^	*	*
2.ryy	4ff'	4fff'	.
*clefF4	*clefF4	*	*
.	4F'	4f'	.
.	4r	2r	.
!	!	!	!LO:DY:b=2:rj
4D	(16BB-LL	.	f
.	16AA	.	.
.	16BB-	.	.
.	16FFJJ)	.	.
=139	=139	=139	=139
*	*	*^	*
4F	4D'	4r	4r	.
!	!	!	!	!LO:DY:a
4D	4BB-'	4f	(16dLL	f
.	.	.	16c#	.
.	.	.	16d	.
.	.	.	16B-JJ)	.
4r	4r	4dd'	4f	.
4D	(16BB-LL	4b-'	4d	.
.	16AA	.	.	.
.	16BB-	.	.	.
.	16FFJJ)	.	.	.
=140	=140	=140	=140	=140
4F	4D'	4r	4r	.
4D	4BB-'	4f	(16dLL	.
.	.	.	16c#	.
.	.	.	16d	.
.	.	.	16B-JJ)	.
4r	2r	4dd'	4f	.
(<16DLL	.	4b-'	4d	.
16C#	.	.	.	.
16D	.	.	.	.
16BB-JJ)	.	.	.	.
*v	*v	*	*	*
*	*v	*v	*
!!LO:LB:g=original
=141	=141	=141
16FLL	1r	.
16En	.	.
16F	.	.
16DJJ	.	.
16B-LL	.	.
16A	.	.
16B-	.	.
16FJJ	.	.
*clefG2	*	*
16dLL	.	.
16c#	.	.
16d	.	.
16B-JJ	.	.
16fLL	.	.
16en	.	.
16f	.	.
16dJJ	.	.
=142	=142	=142
(4..a-z	2r	.
16g	.	.
8.fL	([2aa-	f >
16e-k	.	.
8.d	.	.
16cJk)	.	]]
*clefF4	*	*
=143	=143	=143
*	*^	*
(2Bn	4aa-]	2dd	p
.	[4gg	.	.
4c	4gg]	4ee-	.
4An	[4ff	4cc	.
=144	=144	=144	=144
4B-X	4ff]	4dd	.
4G	[4ee-X	4bn	.
4A-	4ee-]	4cc	.
4F#	[4dd	4an	.
=145	=145	=145	=145
4G	4dd]	4b-	.
4En	[4cc	4g	.
4Fn	4cc]	4a-	.
4D	[4b-	4f	.
=146	=146	=146	=146
4E-X	4b-]	4g	.
4C\	4an	4e-	.
4D	4b-	4d	.
4En)	4d)	4B-	.
*	*v	*v	*
!!LO:LB:g=original
=147	=147	=147
!	!	!LO:DY:rj
8FFL	8A 8cL	sf
8F	16fL	.
.	16A 16cJJ	.
8F	16fLL	.
.	16A 16c	.
8FJ	16g	.
.	16A 16cJJ	.
8FL	16aLL	.
.	16c 16e-X	.
8F	16f	.
.	16c 16e-JJ	.
8F	16gLL	.
.	16c 16e-	.
8FJ	16a	.
.	16c 16e-JJ	.
=148	=148	=148
8FL	16b-LL	.
.	16B- 16d-	.
8F	16b-	.
.	16B- 16d-JJ	.
8F	16b-LL	.
.	16B- 16d-	.
8FJ	16a-	.
.	16B- 16d-JJ	.
8FL	16gLL	.
.	16B- 16d-	.
8F	16f	.
.	16B- 16d-JJ	.
8F	16enLL	.
.	16B- 16d-	.
8FJ	16g	.
.	16B- 16d-JJ	.
=149	=149	=149
8FF\ 8F\	8A 8c 8f	sf
8fL	16ffLL	.
.	16a 16ccJJ	.
8f	16ffLL	.
.	16a 16cc	.
8fJ	16gg	.
.	16a 16ccJJ	.
8fL	16aaLL	.
.	16cc 16ee-X	.
8f	16ff	.
.	16cc 16ee-JJ	.
8f	16ggLL	.
.	16cc 16ee-	.
8fJ	16aa	.
.	16cc 16ee-JJ	.
!!LO:LB:g=original
=150	=150	=150
8fL	16bb-LL	.
.	16b- 16dd-	.
8f	16bb-	.
.	16b- 16dd-JJ	.
8f	16bb-LL	.
.	16b- 16dd-	.
8fJ	16aa-	.
.	16b- 16dd-JJ	.
8fL	16ggLL	.
.	16b- 16dd-	.
8f	16ff	.
.	16b- 16dd-JJ	.
8f	16eenLL	.
.	16b- 16dd-	.
8fJ	16gg	.
.	16b- 16dd-JJ	.
=151	=151	=151
8FL	16ffLL	sf
.	16a 16cc	.
8f	16ff	.
.	16a 16ccJJ	.
8f	16eenLL	.
.	16b- 16dd-	.
8fJ	16gg	.
.	16b- 16dd-JJ	.
8FL	16ffLL	sf
.	16a 16cc	.
8f	16ff	.
.	16a 16ccJJ	.
8f	16eeLL	.
.	16b- 16dd-	.
8fJ	16gg	.
.	16b- 16dd-JJ	.
=152	=152	=152
4F	16a 16cc 16ff	.
.	16fLL	.
.	16g	.
.	16aJJ	.
4r	16b-LL	.
.	16cc	.
.	16ddn	.
.	16eenJJ	.
2r	16ffLL	.
.	16ee	.
.	16ff	.
.	16eeJJ	.
.	16ffLL	.
.	16ee	.
.	16ff	.
.	16eeJJ	.
*clefG2	*	*
!!LO:LB:g=original
=153	=153	=153
16r	2dd (2ff	pp
16B-LL	.	.
16c	.	.
16dJJ	.	.
16e-LL	.	.
16f	.	.
16g	.	.
16aJJ	.	.
16b-LL	4dd	.
16a	.	.
16b-	.	.
16aJJ	.	.
16b-LL	4bb-	.
16a	.	.
16b-	.	.
16aJJ	.	.
=154	=154	=154
16b-LL	4dd 4ff	.
16a	.	.
16b-	.	.
16aJJ	.	.
16b-LL	4bb- 4ddd	.
16a	.	.
16b-	.	.
16aJJ	.	.
16b-LL	4dd 4ff	.
16a	.	.
16b-	.	.
16aJJ	.	.
16b-LL	4ddd 4fff)	.
16a	.	.
16b-	.	.
16aJJ	.	.
=155	=155	=155
16b-LL	2dd (2ff	.
16B-	.	.
16c	.	.
16dJJ	.	.
16e-LL	.	.
16f	.	.
16g	.	.
16aJJ	.	.
16b-LL	4dd	.
16a	.	.
16b-	.	.
16aJJ	.	.
16b-LL	4bb-	.
16a	.	.
16b-	.	.
16aJJ	.	.
!!LO:LB:g=original
=156	=156	=156
16b-LL	4dd 4ff	.
16a	.	.
16b-	.	.
16aJJ	.	.
16b-LL	4bb- 4ddd	.
16a	.	.
16b-	.	.
16aJJ	.	.
16b-LL	4dd 4ff	.
16a	.	.
16b-	.	.
16aJJ	.	.
16b-LL	4ddd 4fff)	.
16a-	.	.
16b-	.	.
16a-JJ	.	.
=157	=157	=157
*	*^	*
16f#LL	2gg 2bbn	2dd 2ff	.
16g	.	.	.
16f#	.	.	.
16gJJ	.	.	.
16enLL	.	.	.
16fn	.	.	.
16e	.	.	.
16fJJ	.	.	.
*clefF4	*	*	*
16c#LL	2r	2r	.
16d	.	.	.
16c#	.	.	.
16dJJ	.	.	.
16A#LL	.	.	.
16Bn	.	.	.
16A#	.	.	.
16BJJ	.	.	.
*	*v	*v	*
=158	=158	=158
16F#LL	4r	.
16G	.	.
16F#	.	.
16GJJ	.	.
16EnLL	(4bbn	<
16Fn	.	.
16E	.	.
16FJJ	.	.
16C#LL	4ddd	.
16D	.	.
16C#	.	.
16DJJ	.	.
16AA#LL	[4fff)	.
16BBn	.	.
16AA#	.	.
16BBJJ	.	.
!!LO:LB:g=original
=159	=159	=159
*	*^	*
16FF#LL	(4fff]	2bbn	.
16GG	.	.	.
16FF#	.	.	.
16GGJJ	.	.	.
16FF#LL	[4eee-	.	.
16GG	.	.	.
16FF#	.	.	.
16GGJJ	.	.	.
16GGLL	[2ccc 2eee-_	4ccc	.
16AA-	.	.	.
16GG	.	.	.
16AA-JJ	.	.	.
16GG#LL	.	4gg-	.
16AAn	.	.	.
16GG#	.	.	.
16AAJJ	.	.	.
=160	=160	=160	=160
16AALL	4ccc] 4eee-]	2ff	f
16BB-	.	.	.
16AA	.	.	.
16BB-JJ	.	.	.
16AALL	4bb-X 4ddd	.	.
16BB-	.	.	.
16AA	.	.	.
16BB-JJ	.	.	.
16DDLL	4ggn 4ccc	4ee-	.
16EE-	.	.	.
16DD	.	.	.
16EE-JJ	.	.	.
16EEnLL	4aa	4cc 4ee-	.
16FF	.	.	.
16EE	.	.	.
16FFJJ	.	.	.
=161	=161	=161	=161
4BBB-	4bb-)	4b- 4dd	.
4r	4r	4r	.
!	!	!	!LO:DY:rj
(2B- 2d	(2dd	2b-	sf
=162	=162	=162	=162
4G 4B-	4b-	4g	.
4E- )4G	4g)	4e-	.
(4.c 4.e-	(4.ee-	4.cc	.
8B- 8d	8dd	8b-	.
!!LO:LB:g=original
=163	=163	=163	=163
4A 4c	4cc	4a	.
4F 4A)	4a)	4f	.
(2d 2f	(2ff	2dd	sf
=164	=164	=164	=164
4B- 4d	4dd	4b-	.
4G 4B-)	4b-)	4g	.
*clefG2	*	*	*
(4.e- 4.g	2ryy	(4.ee- 4.gg	sf
8d 8f	.	8dd 8ff	.
*	*v	*v	*
=165	=165	=165
4c 4e-	4cc 4ee-	.
4A) 4c	4a 4cc)	.
(4.e- 4.cc	4.ee- (4.ccc	sf
8d) 8b-	8dd 8bb-)	.
=166	=166	=166
(4.c 4.a	(4.ccz 4.aaz	.
8B- 8g)	8b- 8gg)	.
(>4A 4f	4a (>4ff	.
*clefF4	*	*
4G 4B-	4e- 4ee-	.
=167	=167	=167
4F# 4A	4d 4dd	>
4D 4A	4f# 4cc	.
4E- 4G	4g 4b-	.
4En 4B-)	4c 4g)	.
=168	=168	=168
2F	4r	.
.	4B- 4d 4f	pp
2FF	4r	.
.	4A 4c 4f	.
=169	=169	=169
2BBB-	4r	.
.	4F 4B- 4d	.
!LO:DY:rj	!	!
4.B-z 4.dz	8r	.
!	!LO:DY:rj	!
.	4b-z 4ddz	.
8B- 8d	8b- 8dd	.
!!LO:LB:g=original
=170	=170	=170
8G 8B-	8r	.
8r	8g 8b-	.
8E- 8G	8r	.
8r	8e- 8g	.
4.cz (4.e-z	8r	.
!	!LO:DY:a:rj	!
.	4ccz (4ee-z	.
8B- 8d	8b- 8dd)	.
=171	=171	=171
8A 8c)	8r	.
8r	8a 8cc	.
8F 8A	8r	.
8r	8f 8a	.
!LO:DY:rj	!	!
4.dz 4.fz	8r	.
!	!LO:DY:rj:a	!
.	4ddz 4ffz	.
8d 8f	8dd 8ff	.
=172	=172	=172
8B- 8d	8r	.
8r	8b- 8dd	.
8G 8B-	8r	.
8r	8g 8b-	.
*clefG2	*	*
!LO:DY:rj	!	!
(4.e-z 4.gz	8r	.
.	4ee-z (4ggz	.
8d 8f	8dd 8ff)	.
=173	=173	=173
8c) 8e-	8r	.
8r	8cc 8ee-	.
8A 8c	8r	.
8r	8a 8cc	.
(4.e-z 4.ccz	8r	.
.	(4ee-z 4cccz	.
8d) 8b-	8dd 8bb-)	.
=174	=174	=174
(4.cz 4.az	8r	.
.	4cc (4aa	.
8B-) 8g	8b- 8gg)	.
*clefF4	*	*
8A 8f	8r	.
8r	8a 8ff	.
8G 8B-	8r	.
8r	8e-\ 8ee-\	.
!!LO:LB:g=original
=175	=175	=175
1F# 1A 1c	(>16ddLL	<
.	16d	.
.	16f#	.
.	16aJJ	.
.	16ddLL	.
.	16ff#	.
.	16aa	.
.	16ccc#JJ	.
.	16dddLL	.
.	16ccc#	.
.	16ddd	.
.	16ccc#JJ	.
.	16dddLL	.
.	16aa	.
.	16ff#	.
.	16ddJJ)	.
=176	=176	=176
1G 1B-	16r	.
.	(>16dLL	.
.	16g	.
.	16b-JJ	.
.	16ddLL	.
.	16gg	.
.	16bb-	.
.	16ccc#JJ	.
.	16dddLL	.
.	16ccc#	.
.	16ddd	.
.	16ccc#JJ	.
.	16dddLL	.
.	16bb-	.
.	16gg	.
.	16ddJJ)	.
=177	=177	=177
1En 1G	16r	.
.	(16d-LL	.
.	16en	.
.	16gJJ	.
.	16b-LL	.
.	16dd-	.
.	16een	.
.	16ggJJ	.
.	16bb-LL	.
.	16gg	.
.	16ddd-	.
.	16bb-JJ	.
.	16ggLL	.
.	16ee	.
.	16dd-	.
.	16b-JJ)	.
!!LO:LB:g=original
=178	=178	=178
[2E-X [2G-	16r	rfz
.	(16ALL	.
.	16c	.
.	16e-JJ	.
.	16g-LL	.
.	16a	.
.	16cc	.
.	16ee-JJ	.
8E-] 8G-L]	16gg-LL	.
.	16aa)	.
8E-' 8F' 8c'	16a	.
.	16aaJJ	.
8E-' 8F' 8c'	16aLL	.
.	16aa	.
8E-' 8F' 8c'J	16a	.
.	16aaJJ	.
=179	=179	=179
*^	*	*
4D 4F 4B-	4.ryy	16b-LL	f
.	.	16bb-	.
.	.	16a	.
.	.	16aaJJ	.
8r	.	16b-LL	.
.	.	16bb-	.
8F	8AA'	16e-	.
.	.	16ee-JJ	.
8FL	8BB-'L	16dLL	.
.	.	16dd	.
8F	8E-'	16a	.
.	.	16aaJJ	.
8F	8D'	16b-LL	.
.	.	16bb-	.
8FJ	8AA'J	16e-	.
.	.	16ee-JJ	.
=180	=180	=180	=180
8FL	8BB-'L	16dLL	.
.	.	16dd	.
8F	8E-'	16a	.
.	.	16aaJJ	.
8F	8D'	16b-LL	.
.	.	16bb-	.
8FJ	8AA'J	16e-	.
.	.	16ee-JJ	.
8FL	8BB-'L	16dLL	.
.	.	16dd	.
8F	8E-'	16a	.
.	.	16aaJJ	.
8F	8D'	16b-LL	.
.	.	16bb-	.
8FJ	8AA'J	16e-	.
.	.	16ee-JJ	.
*v	*v	*	*
!!LO:LB:g=original
=181	=181	=181
!LO:DY:rj	!	!
2BB-z	16dLL	.
.	16dd	.
.	16a	.
.	16aaJJ	.
.	16b-LL	.
.	16bb-	.
.	16a	.
.	16aaJJ	.
!LO:DY:rj	!	!
2GGz	16gLL	.
.	16gg	.
.	16f	.
.	16ffJJ	.
.	16e-LL<	.
.	16ee-	.
.	16d	.
.	16ddJJ	.
=182	=182	=182
!LO:DY:rj	!	!
2EE-z	16cLL	.
.	16cc	.
.	16B-	.
.	16b-JJ	.
.	16ALL	.
.	16a	.
.	16G	.
.	16gJJ	.
*	*clefF4	*
!LO:DY:rj	!	!
2FFz	16FLL	.
.	16f	.
.	16E-	.
.	16e-JJ	.
.	16DLL	.
.	16d	.
.	16C	.
.	16cJJ	.
=183	=183	=183
8BBB-'L	8BB-' 8B-'L	.
(8E-	(16AL	p
.	16FJJ	.
8D	16B-LL	.
.	16F	.
8AAJ	16e-	.
.	16FJJ	.
8BB-L	16dLL	.
.	16F	.
8E-	16A	.
.	16FJJ	.
8D	16B-LL	.
.	16F	.
8AAJ	16e-	.
.	16FJJ)	.
!!LO:LB:g=original
=184	=184	=184
8BB-L	(>16dLL	<
.	16F	.
8E-	16A	.
.	16FJJ	.
8D	16B-LL	.
.	16F	.
8AAJ	16e-	.
.	16FJJ	.
8BB-L	8dL	.
8C	16F#L	.
.	16f#JJ	.
*	*clefG2	*
8BB-	16GLL	.
.	16g	.
8AAJ	16A	.
.	16aJJ)	.
=185	=185	=185
8GGL	16B-LL	.
.	16b-	.
8FFn	16Bn	.
.	16bnJJ	.
8EE-	16cLL	.
.	16cc	.
8DDJ)	16d	.
.	16ddJJ	.
!LO:DY:rj	!	!LO:DY:rj
[2CCz	16e-LL	ff
.	16ee-	.
.	16f	.
.	16ffJJ	.
.	16gLL	.
.	16gg	.
.	16f	.
.	16ffJJ	.
=186	=186	=186
2CC]	16e-LL	.
.	16ee-	.
.	16d	.
.	16ddJJ	.
.	16cLL	.
.	16cc	.
.	16B-X	.
.	16b-XJJ	.
2FFF 2FF	16ALL	.
.	16a	.
.	16G	.
.	16gJJ	.
.	16FLL	.
.	16f	.
.	16A	.
.	16aJJ	.
!!LO:LB:g=original
=187	=187	=187
*tremolo	*	*
*	*^	*
16BBB-LL	4B- 4b-	2ryy	.
16BB-	.	.	.
16BBB-	.	.	.
16BB-	.	.	.
16BBB-	4r	.	.
16BB-	.	.	.
16BBB-	.	.	.
16BB-JJ	.	.	.
16BBB-LL	2d 2f	(4.d	p
16BB-	.	.	.
16BBB-	.	.	.
16BB-	.	.	.
16BBB-	.	.	.
16BB-	.	.	.
16BBB-	.	8B-)	.
16BB-JJ	.	.	.
=188	=188	=188	=188
16BBB-LL	2e- 2g-	(4.e-	.
16BB-	.	.	.
16BBB-	.	.	.
16BB-	.	.	.
16BBB-	.	.	.
16BB-	.	.	.
16BBB-	.	8d-	.
16BB-JJ	.	.	.
16BBB-LL	4e- 4g-	8c-L	.
16BB-	.	.	.
16BBB-	.	8B-	.
16BB-	.	.	.
16BBB-	4e- 4g-	8c-	.
16BB-	.	.	.
16BBB-	.	8AnJ	.
16BB-JJ	.	.	.
=189	=189	=189	=189
16BBB-LL	4.B- 4.d 4.f)	2ryy	.
16BB-	.	.	.
16BBB-	.	.	.
16BB-	.	.	.
16BBB-	.	.	.
16BB-	.	.	.
16BBB-	8r	.	.
16BB-JJ	.	.	.
16BBB-LL	(4.dd	2d 2f	.
16BB-	.	.	.
16BBB-	.	.	.
16BB-	.	.	.
16BBB-	.	.	.
16BB-	.	.	.
16BBB-	8b-)	.	.
16BB-JJ	.	.	.
=190	=190	=190	=190
*Xtremolo	*	*	*
16BBB-LL	(4.ee-	2e- 2g-	.
16BB-	.	.	.
16BBB-	.	.	.
16BB-JJ	.	.	.
16BBB-LL	.	.	.
16BB-	.	.	.
16BBB-	8dd-	.	.
16BB-JJ	.	.	.
*tremolo	*	*	*
16BBB-LL	8cc-L	4e- 4g-	>
16BB-	.	.	.
16BBB-	8b-	.	.
16BB-	.	.	.
16BBB-	8cc-	4e- 4g-	.
16BB-	.	.	.
16BBB-	8aJ)	.	.
16BB-JJ	.	.	.
!!LO:LB:g=original
=191	=191	=191	=191
*Xtremolo	*	*	*
16BBB-LL	4.b-	4.d 4.f	.
16BB-	.	.	.
16BBB-	.	.	.
16BB-JJ	.	.	.
16BBB-LL	.	.	.
16BB-	.	.	.
16BBB-	8r	8r	.
16BB-JJ	.	.	.
*tremolo	*	*	*
16BBB-LL	(8ccnL	4e- 4g-	.
16BB-	.	.	.
16BBB-	8b-	.	.
16BB-	.	.	.
16BBB-	8cc	4e- 4g-	.
16BB-	.	.	.
16BBB-	8aJ)	.	.
16BB-JJ	.	.	.
=192	=192	=192	=192
16BBB-LL	4.b-	4.d 4.f	.
16BB-	.	.	.
16BBB-	.	.	.
16BB-	.	.	.
16BBB-	.	.	.
16BB-	.	.	.
16BBB-	8r	8r	.
16BB-JJ	.	.	.
16BBB-LL	(8cc-L	4e- 4g-X	pp
16BB-	.	.	.
16BBB-	8b-	.	.
16BB-	.	.	.
16BBB-	8cc-	4e- 4g-	.
16BB-	.	.	.
16BBB-	8aJ)	.	.
16BB-JJ	.	.	.
*	*v	*v	*
=193	=193	=193
4.BBB- 4.BB-	4.B- 4.b-	ff
8CC' 8C'	8cn' 8ccn'	.
4.DD 4.D	4.d 4.dd	sf
8EE-' 8E-'	8e-' 8ee-'	.
=194	=194	=194
4.FF 4.F	4.f 4.ff	sf
8GG' 8G'	8g' 8gg'	.
8AA' 8A'L	8a' 8aa'L	.
8BB-' 8B-'	8b-' 8bb-'	.
8C' 8c'	8cc' 8ccc'	.
8D' 8d'J	8dd' 8ddd'J	.
!!LO:LB:g=original
=195	=195	=195
4.E- 4.e-	4.ee- 4.eee-	sf
8D' 8d'	8dd' 8ddd'	.
4.C 4.c	4.cc 4.ccc	sf
8BB-' 8B-'	8b-' 8bb-'	.
=196	=196	=196
4.AA 4.A	4.a 4.aa	sf
8GG' 8G'	8g' 8gg'	.
8FF' 8F'L	8f' 8ff'L<	.
8EE-' 8E-'	8e-' 8ee-'	.
8DD' 8D'	8d' 8dd'	.
8CC' 8C'J	8c' 8cc'J	.
=197	=197	=197
4BBB-' 4BB-'	4B-' 4b-'	.
!	!	!LO:DY:rj
4F' 4c' 4e-'	(16aLL	p
.	16g#	.
.	16a	.
.	16fJJ	.
4B-' 4d'	4b-'/)	.
*clefG2	*	*
4f' 4cc' 4ee-'	(16aaLL	.
.	16gg#	.
.	16aa	.
.	16ffJJ	.
=198	=198	=198
4b-' 4dd'	4bb-')	.
4r	4r	.
*clefF4	*	*
4FF' 4F'	4a' 4cc' 4ee-' 4ff' 4aa'	ff
4r	4r	.
=199	=199	=199
4BBB-' 4BB-'	4b-' 4dd' 4ff' 4bb-'	.
4r	4r	.
4r	4r	.
==	==	==
*-	*-	*-
!!!RDF**kern: > = above
!!!RDF**kern: < = below
!!!verovio: beamFrenchStyle
!!!LOR: Durand 1915, plates 9327/9328, Paul Dukas, ed.
!!!PED: Dukas, Paul
!!!URL-vhv: https://verovio.humdrum.org/?file=beethoven/sonatas/sonata11-1.krn
!!!URL-pdf: https://github.com/craigsapp/beethoven-piano-sonatas/blob/master/reference-edition/sonata11-1.pdf
!!!ENC: Craig Stuart Sapp
!!!END: 2008/11/05
!!!EED: Craig Stuart Sapp
!!!EEV: 2021/07/09
